X:3506
T:Lake Pontchartrain Waltz
O:england
M:3/4
L:1/8
C:Tony Ludiker (composed 8-8-98)
N:I composed this waltz between New Orleans and Salt Lake City on the
airplane after teaching at a Suzuki violin camp. The title comes from th
e
lake located just a block from my hosts' home (Bruce and Sue Daigrepont)
.
K:Bb
u(Bc)|"Bb"d2B3F|B2e2(de)|"F"d2(c3d)|c3(=Bcd)|
"Cm"e4((3ded)|"F"c2(f3e)|"Bb"e2(d3e)|"Bb7"d4ga|
"Eb"b2g3b|"Dm"a2f2df|"Cm"e2f2((3gag)|"Bb"uf3 (udBc)|
d2(c3d)|"F7"e2(cB (3ABc)|"Bb"([B4D4][BD][cD])|[B3D3]vA u(Bc)||
d2B3F|B2(e3d/e/)|d2(c3{dc} =B)|c3=B(cd)|
e3(d (3ded)|c2({fg}f3e)|e2(d3e)|d4ga|
b2g3b|a2f2dB|e2(fg (3gag)|vf3 ((3ud/_d/c/ Bc)|
d2(c3d)|e2(c (3B/c/B/ (3ABc)|([B4D4][BD][cD])|([B4D4][BD])uA||
"Gm"BA2G3|D4((3DEF)|"Cm"F2([E3G,3][FG,])|([E4G,4][EG,])[vEG,]|
"C"[v=E2G,2][E3G,3]((3C/=B,/A,/|G,C)(=E3G)|"F"((3GAG)(F3{GF} =E)|(F4F)uF
|
"F#dim"u^FA(ce)^fa|c'2(a3c')|"Gm"(b2g)(dBG)|(D4D)uE|
"C7"(u=EG)c=ege|[b2c2]([a2c2](3gag)|"F"[f3A3](g/f/=ef)|"F7"[e3f3](Bc_d)|
|
(d2B)(F (3FGF)|D2(e3d/e/)|d2(c3{dc} =B)|c3(=Bcd)|
e3(d (3ded)|c2({fg}f3e)|e2(d3e)|d6|
(bg3)b2|a2f2dB|e2f(g (3gag)|vf3 ((3ud/_d/c/ Bc)|
d2(c3d)|e2(c (3B/c/B/ (3ABc)|([B4D4][BD][cD])|[B3D3](uABc)||
(d2c)d2(e|e2)ug2ua2|([b6d6]|[b4d4])|]


